X:1
T:Title
%%score { ( 1 3 ) | ( 2 4 ) }
L:1/8
Q:1/4=105
M:6/8
K:Ab
V:1 treble nm="Grand Piano"
V:3 treble 
V:2 bass 
V:4 bass 
V:1
 [CA]3 [CF]2 [CG] | [DF]3 [DE]3 | [CA]3 [CF]2 [CA] | [DG]6 | B3 =A2 B | [Ec]3 [CA]3 | %6
w: J.~Lincoln~Hall * *||||||
 [=DG]3 [DF]2 [DG] | E6 | d3 c2 G | [DB]3 [CA]3 | G3 A2 G | [A,F]6 | [DA]3 [FB]2 [FB] | %13
w: |||||||
 [Ec]3 [Ae]3 | c3 B2 c | [A,CA]6 | [Ac]3 .[Fc]3 | [Fc]3 [Ec]3 | [Ac]3 .[Fc]3 | [Gd]6 | %20
w: |||||||
 [Bd]3 .[ce]3 | [Ac]3 [ce]3 | [B=d]3 .[cd]3 | [Ee]6 | [GBde][Bde][Bde] [GBde]B[GBde] | %25
w: |||||
 [GBde][Bde][Bde] [Ace][ce][ce] | [GBde]ee eee | eee eee | [ce]3 .[de]3 | [B=d]3 [Fd]3 | %30
w: |||||
 [Gd]3 .[Bd]3 | [EAc]6 |] %32
w: ||
V:2
 [A,,E,]3 [A,,E,]2 [A,,E,] | [B,,E,]3 [E,G,]3 | [A,,E,]3 [A,,E,]2 [A,,E,] | [B,,E,]6 | %4
 [E,G,D]3 [E,_G,C]2 [E,=G,D] | [A,,A,]3 [F,A,]3 | [B,,B,]3 [B,,A,]2 [B,,B,] | [E,G,]6 | %8
 [E,G,E]3 [E,G,E]2 [E,G,D] | [A,,E,]3 [A,,E,]3 | [C,=E,B,]3 [C,E,C]2 [C,E,B,] | [F,,F,]6 | %12
 [D,F,]3 [D,A,]2 [D,A,] | [E,A,]3 [E,C]3 | [E,A,E]3 [E,G,E]2 [E,G,E] | A,,6 | %16
 A,,E,E, [E,A,C][E,A,][E,A,C] | A,,E,E, [E,A,C]E,E, | A,,E,E, [E,A,C][E,A,][E,A,C] | %19
 E,G,G, G,G,G, | E,G,G, [G,B,D][G,B,][G,B,D] | A,,E,E, [E,A,C]E,E, | %22
 B,,F,F, [F,A,B,=D][F,A,][F,A,B,] | [E,G,B,]6 | z[K:treble] GG z GC | z GG z AA | %26
 z [GBd][GBd] [GBd][GBd][DGBd] | [Ac][Ac][Ac] [Ac][Ac][Ac] | A,,E,E, [E,A,C][E,A,][E,A,C] | %29
 B,,F,F, [F,A,D]F,F, | E,G,G, [G,B,E][G,B,][G,B,E] | [A,,A,]6 |] %32
V:3
 x6 | x6 | x6 | x6 | x6 | x6 | x6 | x6 | x6 | x6 | x6 | x6 | x6 | x6 | x6 | x6 | %16
 z [A,C][A,C] z C[Gc] | z [A,C][A,C] z [A,C][A,C] | z [A,C][A,C] z C[Ac] | %19
 z [B,D][B,D] [B,D][B,D][B,D] | z [B,D][B,D] z D[Bd] | z [A,C][A,C] z [A,C][A,C] | %22
 z [A,B,=D][A,B,D] z [B,D][DB=d] | x6 | x6 | x6 | x6 | x6 | z [A,C][A,C] z C[ce] | %29
 z [A,D][A,D] z [A,D][A,D] | z [B,E][B,E] z E[Bd] | x6 |] %32
V:4
 x6 | x6 | x6 | x6 | x6 | x6 | x6 | x6 | x6 | x6 | x6 | x6 | x6 | x6 | x6 | x6 | x6 | x6 | x6 | %19
 x6 | x6 | x6 | x6 | x6 | E,3[K:treble] .B,3 | B,3 A,3 | E,3 .D3 | C6 | x6 | x6 | x6 | x6 |] %32

